img/twitter.svg

<svg width="18" height="15" viewBox="0 0 18 15" fill="none" xmlns="http://www.w3.org/2000/svg">
<path d="M16.1367 3.76563C16.8398 3.23829 17.4727 2.60547 17.9648 1.86719C17.332 2.14844 16.5938 2.35938 15.8555 2.42969C16.6289 1.97266 17.1914 1.26954 17.4727 0.390625C16.7695 0.8125 15.9609 1.12891 15.1523 1.30469C14.4492 0.566406 13.5 0.144531 12.4453 0.144531C10.4062 0.144531 8.75391 1.79688 8.75391 3.83594C8.75391 4.11719 8.78906 4.39844 8.85938 4.67969C5.80078 4.50391 3.05859 3.02735 1.23047 0.8125C0.914062 1.33985 0.738281 1.97266 0.738281 2.67579C0.738281 3.94141 1.37109 5.06641 2.39062 5.73438C1.79297 5.69922 1.19531 5.5586 0.703125 5.27735V5.3125C0.703125 7.10547 1.96875 8.58204 3.65625 8.9336C3.375 9.00391 3.02344 9.07422 2.70703 9.07422C2.46094 9.07422 2.25 9.03907 2.00391 9.00391C2.46094 10.4805 3.83203 11.5352 5.44922 11.5704C4.18359 12.5547 2.60156 13.1524 0.878906 13.1524C0.5625 13.1524 0.28125 13.1172 0 13.0821C1.61719 14.1368 3.55078 14.7344 5.66016 14.7344C12.4453 14.7344 16.1367 9.14454 16.1367 4.25782C16.1367 4.08204 16.1367 3.94141 16.1367 3.76563Z" fill="#292F36"/>
</svg>

<svg width="18" height="15" fill="none" xmlns="http://www.w3.org/2000/svg"><path d="M16.137 3.766a7.818 7.818 0 0 0 1.828-1.899 6.918 6.918 0 0 1-2.11.563A3.607 3.607 0 0 0 17.473.39a7.798 7.798 0 0 1-2.32.915 3.691 3.691 0 0 0-2.708-1.16 3.69 3.69 0 0 0-3.691 3.69c0 .282.035.563.105.845A10.71 10.71 0 0 1 1.23.813a3.59 3.59 0 0 0-.492 1.863c0 1.265.633 2.39 1.653 3.058C1.793 5.7 1.195 5.56.703 5.277v.035a3.696 3.696 0 0 0 2.953 3.622c-.281.07-.633.14-.949.14-.246 0-.457-.035-.703-.07.457 1.476 1.828 2.531 3.445 2.566a7.422 7.422 0 0 1-4.57 1.582c-.317 0-.598-.035-.879-.07 1.617 1.055 3.55 1.652 5.66 1.652 6.785 0 10.477-5.59 10.477-10.476v-.492Z" fill="#292F36"/></svg>
